packages/calcite-ui-icons/icons/mosaic-method-mean-24.svg

<?xml version="1.0" encoding="UTF-8"?><svg id="icons" xmlns="http://www.w3.org/2000/svg" viewBox="0 0 24 24"><defs><style>.cls-1{fill:none;}.cls-2{opacity:.5;}.cls-3{opacity:.25;}</style></defs><path class="cls-3" d="M2,5h2v2h-2v-2ZM5,10h2v-2h-2v2ZM7,3h2V1h-2v2ZM10,4v2h2v-2h-2Z"/><path class="cls-2" d="M8,8h2v2h-2v-2ZM10,3h2V1h-2v2ZM13,4v2h2v-2h-2Z"/><path d="M8,10v-2h-1v2h-2v-2h1c-.55273,0-1-.44727-1-1v-3H1v7h8c0-.55273.44727-1,1-1h-2ZM4,10h-2v-2h2v2ZM4,7h-2v-2h2v2ZM11,10h-1v-2h1v2ZM16,0H6v7h10V0ZM9,6h-2v-2h2v2ZM9,3h-2V1h2v2ZM12,6h-2v-2h2v2ZM12,3h-2V1h2v2ZM15,6h-2v-2h2v2ZM15,3h-2V1h2v2ZM24,23v1h-14v-13h1v12h13ZM12,21.1875c.34473-.13184,1.97363-.8457,2.57227-2.04297.02039-.04071.04028-.09833.06049-.14453h.78979c-.06409.17566-.12958.33551-.19794.47168-.83203,1.66699-3.05078,2.44727-3.07422,2.4541l-.15039.0498v-.78809ZM15.52344,16c.46295-1.59467,1.01251-2.8877,2.02637-2.8877,1.01324,0,1.56317,1.29413,2.02667,2.8877h-.76569c-.38477-1.24835-.79657-2.15723-1.26099-2.15723-.46674,0-.87921.91504-1.26123,2.15723h-.76514ZM19.875,19.47168c-.06812-.13629-.13354-.29633-.19745-.47168h.79132c.0202.04602.0401.10419.06042.14453.61133,1.22461,2.05469,1.93164,2.40527,2.06055l.06543.02441v.77051l-.13281-.04492c-.25586-.08496-2.19043-.87891-2.99219-2.4834ZM23,18h-1v-1h1v1ZM21,18h-1v-1h1v1ZM18,17h1v1h-1v-1ZM16,17h1v1h-1v-1ZM15,18h-1v-1h1v1ZM13,17v1h-1v-1h1Z"/><rect class="cls-1" width="24" height="24"/></svg>

<svg xmlns="http://www.w3.org/2000/svg" viewBox="0 0 24 24"><path d="M2 5h2v2H2V5zm3 5h2V8H5v2zm2-7h2V1H7v2zm3 1v2h2V4h-2z" opacity=".25"/><path d="M8 8h2v2H8V8zm2-5h2V1h-2v2zm3 1v2h2V4h-2z" opacity=".5"/><path d="M8 10V8H7v2H5V8h1a1 1 0 0 1-1-1V4H1v7h8a1 1 0 0 1 1-1H8zm-4 0H2V8h2v2zm0-3H2V5h2v2zm7 3h-1V8h1v2zm5-10H6v7h10V0zM9 6H7V4h2v2zm0-3H7V1h2v2zm3 3h-2V4h2v2zm0-3h-2V1h2v2zm3 3h-2V4h2v2zm0-3h-2V1h2v2zm9 20v1H10V11h1v12h13zm-12-1.813c.345-.131 1.974-.845 2.572-2.042.02-.041.04-.099.06-.145h.79a4.53 4.53 0 0 1-.197.472c-.832 1.667-3.051 2.447-3.075 2.454l-.15.05v-.789zM15.523 16c.463-1.595 1.013-2.888 2.027-2.888 1.013 0 1.563 1.294 2.026 2.888h-.765c-.385-1.248-.797-2.157-1.261-2.157-.467 0-.88.915-1.261 2.157h-.766zm4.352 3.472a4.587 4.587 0 0 1-.197-.472h.79c.021.046.041.104.061.145.612 1.224 2.055 1.931 2.406 2.06l.065.024V22l-.133-.045c-.256-.085-2.19-.879-2.992-2.483zM23 18h-1v-1h1v1zm-2 0h-1v-1h1v1zm-3-1h1v1h-1v-1zm-2 0h1v1h-1v-1zm-1 1h-1v-1h1v1zm-2-1v1h-1v-1h1z"/><path fill="none" d="M0 0h24v24H0z"/></svg>
